!!!!SEGMENT: pl-wnifc--3104-n_dobrzynski-ignacy-feliks--resignation-op-48.krn
!!!cenid: 18xx:3858
!!!COM: Dobrzyński, Ignacy Feliks
!!!COM-rismID: pe30020642
!!!CDT: 1807/02/15-1867/10/09
!!!CNT: Polish
!!!OTL: Résignation op. 48
!!!PDT:
!!!AGN:
!!!SMS-siglum: PL-Wnifc
!!!SMS-shelfmark: 3104/n
!!!SMS-shelfwork: W
!!!SMS-variant:
!!!SMS-altvar:
!!!NIFC-rismSourceID: 1001141549
!!!NIFC-islandoraID: nifc:212133
!!!URL-pdf-islandora: https://repozytorium.nifc.pl/islandora/object/nifc%3A212133/datastream/PDF/view
!!!URL-scan: https://polish.musicsources.pl/pl/lokalizacje/galeria/druki-muzyczne/16827 @EN{Scan on Polish Music Sources Website} @PL{Skany w portalu Dziedzictwo Muzyki Polskiej w otwartym dostępie}
!!!ONB-nifc:
!!!AIN: 2 piano
!!!key: A-
**kern	**fing	**kern	**fing	**dynam
*part2	*part2	*part1	*part1	*part1
*staff2	*staff2	*staff1	*staff1	*
*I"Piano	*	*I"Piano	*	*
*Ipiano	*	*Ipiano	*	*
*ICklav	*	*ICklav	*	*
*clefF4	*	*clefG2	*	*
*k[b-e-a-d-]	*	*k[b-e-a-d-]	*	*
*A-:	*	*A-:	*	*
*M6/8	*	*M6/8	*	*
*>[A1,A1,A2,B,B1,B2,C,C1,C2,D,D1,D2,E]	*	*>[A1,A1,A2,B,B1,B2,C,C1,C2,D,D1,D2,E]	*	*
*>A	*	*>A	*	*
=1	=1	=1	=1	=1
!	!	!LO:TX:a:t=a)	!	!
!	!	!LO:TX:b:i:t=dolce	!	!
!	!	!LO:TX:a:B:t=A	!	!
!	!	!LO:TX:a:B:t=Andante espressivo.	!	!
*ped	*	*	*	*
8AAA-/	.	([4ee-\	3	p <
8A-\L 8c	2	.	.	.
!	!	!LO:TUP:a	!	!
*Xped	*	*	*	*
8E-\J	4	24ee-\LL]	.	.
.	.	24ddn\	.	.
.	.	24ee-\JJ	.	.
*ped	*	*	*	*
8AAA-/	.	8ff'~\L	.	[ >
8A-\L 8c-X	.	8ee-'\	.	.
8F\J	.	8dd'\J	.	.
*Xped	*	*	*	*
=2	=2	=2	=2	=2
*ped	*	*	*	*
8AAA-/	.	4.ee-\	.	.
8A-\L 8c	.	.	.	.
*Xped	*	*	*	*
8E-\J	.	.	.	.
*ped	*	*	*	*
8FF/	.	4.a-/)	1	]]
8A-\L 8c	.	.	.	.
8F\J	.	.	.	.
*Xped	*	*	*	*
=3	=3	=3	=3	=3
*ped	*	*	*	*
8DD-/	.	(4b-\	4	<
8F\L 8B-	.	.	.	.
*Xped	*	*	*	*
8D-\J	.	8f/	1	.
.	.	(16qqg/LL	2	.
!	!	!LO:TX:a:t=b)	!	!
.	.	16qqa-/JJ)	4	.
*ped	*	*	*	*
8EE-/	.	8g'/L	3	.
!LO:TX:a:t=c)	!	!	!	!
*	*below	*	*	*
8G\L 8d-	2	8f'/	.	.
8E-\J	.	8e-'/J	1	.
*Xped	*	*	*	*
=4	=4	=4	=4	=4
*ped	*	*	*	*
8AA-/	.	16a-'\LL	2	.
.	.	16b-'\	.	.
8A-\L 8c	.	16cc'\	1	.
.	.	16dd-'\	3	.
!	!	!LO:TX:a:t=d)	!	!
.	.	8qdd-/	2	.
*Xped	*	*	*	*
8E-\J	.	16ff'~\	.	.
.	.	16ee-'\JJ	.	.
.	.	(8qee-/	4	[ >
*ped	*	*	*	*
8EE-/	.	4b-\))	1	.
8G\L 8d-	2	.	.	.
8E-\J	.	8r	.	]]
*Xped	*	*	*	*
!!LO:LB:g=original
=5	=5	=5	=5	=5
*ped	*	*	*	*
!	!	!LO:TX:b:i:t=(rinf.)	!	!
8AAA-/	.	([4ee-\	3	<
8A-\L 8c	.	.	.	.
*Xped	*	*	*	*
!	!	!LO:TUP:a	!	!
8E-\J	.	24ee-\LL]	.	.
.	.	24ddn\	.	.
.	.	24ee-\JJ	.	.
*ped	*	*	*	*
8AAA-/	.	8ff'~\L	.	.
8A-\L 8c-X	.	8ee-'\	.	.
8F\J	.	8dd-X'\J	1	.
*Xped	*	*	*	*
=6	=6	=6	=6	=6
*ped	*	*	*	*
8AAA-/	.	4.ee-\	.	.
8A-\L 8c	.	.	.	.
*Xped	*	*	*	*
8AA-\J	5	.	.	.
*ped	*	*	*	*
8AAn/	5	4.ccc\	.	[[
!LO:TX:a:t=e)	!	!	!	!
8F#X\L 8e-	3	.	.	.
8AA\J	5	.	.	.
*Xped	*	*	*	*
=7	=7	=7	=7	=7
*ped	*	*	*	*
!	!	!LO:TX:b:i:t=sempre	!	!
8BB-/	5	16bb-'\LL	3	f
.	.	16bb-'\ 16ggg	5	.
8G\L 8e-	3	16aa-'\ 16fff	5	.
.	.	16gg'\ 16eee-	4	.
*Xped	*	*	*	*
8B-\J	2	16ff'\ 16dddn	5	.
.	.	16ee-'\JJ 16ccc	5	.
!	!	!LO:TX:a:i:t=ritard.	!	!
*ped	*	*	*	*
8BBB-'/L	.	16ddn'\LL 16bb-	4	.
!	!	!LO:TX:a:t=f)	!	!
.	.	16cc'\ 16aan	5	.
8B-'/	1	16cc-X'\ 16aa-X	4	.
.	.	16b-'\ 16gg	.	5
8BB-'/J	3	16b--'\ 16gg-X	4	.
.	.	16a-'\JJ 16ff	5	.
*Xped	*	*	*	*
*>A1	*	*>A1	*	*
!!LO:LB:g=original
=8	=8	=8	=8	=8
*ped	*	*	*	*
!	!	!LO:TX:a:i:t=a tempo	!	!
16EE-'\LL	.	4gn\) 4ee-	4	>
16e-'\	2	.	.	.
16dn'\	1	.	.	.
16d-X'\	.	.	.	.
16B-'\	3	8r	.	.
16G'\JJ	1	.	.	.
*Xped	*	*	*	*
16E-'/LL	2	4.r	.	]]
16D-'/	.	.	.	.
16BB-'/	4	.	.	.
16GG'/	1	.	.	.
16FF-X'/	.	.	.	.
16EE-'/JJ	.	.	.	.
*>A2	*	*>A2	*	*
=9:|!	=9:|!	=9:|!	=9:|!	=9:|!
*ped	*above	*	*	*
!LO:TX:a:t=g)	!	!	!	!
16EE-'\LL	.	4g\ 4ee-	4	>
16BB-'\	3	.	.	.
16E-'\	2	.	.	.
16G'\	.	.	.	.
16B-'\	3	8r	.	.
16e-'\JJ	2	.	.	.
4g\	.	8r	.	.
*>B	*	*>B	*	*
!	!	!LO:TX:a:B:t=B	!	!LO:DY:b:i:t=(mf)
.	.	(8ee-'\L	2	] mf <
*Xped	*	*	*	*
8r	.	8ff'\J	.	[[
=10!|:	=10!|:	=10!|:	=10!|:	=10!|:
.	.	(16qqee-/LL	.	sf >
.	.	16qqff/JJ)	.	.
*ped	*	*	*	*
8EE-/	.	4gg-X\	.	.
*	*below	*	*	*
8e-\L 8g-X	2	.	.	.
*Xped	*	*	*	*
8B-\J	.	8ff\	.	.
.	.	(16qqee-'/LL	2	.
.	.	16qqff'/JJ)	4	.
*ped	*	*	*	*
8FF/	.	8ee-'\L	3	.
8An\L 8e-	2	8dd-'\	.	.
8F\J	.	8cc'\J	.	.
*Xped	*	*	*	*
!!LO:LB:g=original
=11	=11	=11	=11	=11
*ped	*	*	*	*
8BB-/	.	4.dd-\	4	.
!LO:TX:a:t=h)	!	!	!	!
!LO:TX:b:i:t=simile	!	!	!	!
8B-\L 8d-	.	.	.	.
8F\J	4	.	.	.
8GG-X/	.	4.b-\)	.	]]
8B-\L 8d-	.	.	.	.
8G-X\J	3	.	.	.
=12	=12	=12	=12	=12
8EE-/	.	(4cc\	4	>
8G-X\L 8c	2	.	.	.
8E-\J	.	8b-\	.	.
8FF/	.	4.ant/	.	.
8c\L 8e-	.	.	.	.
8F\J	4	.	.	.
.	.	16qqgn/LL	.	.
.	.	16qqa/JJ	.	.
=13	=13	=13	=13	=13
8BB-/	.	4b-\	.	.
!LO:TX:a:t=i)	!	!	!	!
8B-\L 8d-	.	.	.	.
8F\J	.	8r	.	.
!	!	!LO:TX:b:i:t=(rinf.)	!	!
8AA-X/	.	(4.b-\)	2	] <
8B-\L 8d-	.	.	.	.
8F-X\J	.	.	.	.
=14	=14	=14	=14	=14
8GG/	.	8cc'~\L	.	.
8d-\L 8e-	.	8b-'\	.	.
8E-\J	.	8a-'\J	.	.
.	.	(8qa-/	4	.
8D-\L	5	8g'/L)	.	.
8G\ 8B-	.	8f'/	.	.
8D-\J	4	8e-'/J	1	[[
=15	=15	=15	=15	=15
*^	*	*	*	*
8ryy	8C\L	.	4.ee-\	3	>
8ryy	8A-\ 8e-	2	.	.	.
8ryy	8C\J	.	.	.	.
*ped	*	*above	*	*	*
4F/	8F\L	3	4aa-\	.	.
.	8A-\J 8c-X	.	.	.	.
*Xped	*	*	*	*	*
8ryy	8F-X\	4	([8dn^>/)	2	] <
*v	*v	*	*	*	*
!!LO:LB:g=original
=16	=16	=16	=16	=16
8E-\L	.	16dn/LL]	.	.
.	.	16e-'/	.	.
8A-\ 8cn	.	16f'/	1	.
.	.	16g'/	.	.
!	!	!LO:TX:a:i:t=ritard.	!	!
8E-\J	.	16a-'/	.	.
.	.	16b-'/JJ	.	.
*ped	*below	*	*	*
8EE-/	.	16cc'\LL	1	.
.	.	16dd-'\	3	.
8G\L 8d-X	2	16ddn'\	1	.
.	.	16ee-'\JJ	3	[
.	.	(8qee-/	1	>
8E-\J	3	16ee-~\LL) 16ccc	5	.
.	.	32r	.	.
.	.	32dd-X\JJk 32bb-	4	.
*Xped	*	*	*	*
*>B1	*	*>B1	*	*
=17	=17	=17	=17	=17
*ped	*above	*	*	*
!LO:TX:a:t=k)	!	!LO:TX:a:i:t=a tempo	!	!
16AA-'\LL	.	4cc\ 4aa-	.	.
16E-'\	3	.	.	.
16A-'\	2	.	.	.
16c'\	1	.	.	.
16e-'\	3	8r	.	.
16a-'\JJ	2	.	.	.
4cc\	.	8r	.	.
!	!	!	!	!LO:DY:b:i:t=(mf)
.	.	(8ee-'\L)	2	] mf <
*Xped	*	*	*	*
8r	.	8ff'\J)	.	[[
*>B2	*	*>B2	*	*
=18:|!	=18:|!	=18:|!	=18:|!	=18:|!
*ped	*	*	*	*
16AA-\LL	5	4cc\ 4aa-	3	>
16E-\	3	.	.	.
16A-\	2	.	.	.
16c\	.	.	.	.
16A-\	.	8r	.	.
*Xped	*	*	*	*
16E-\JJ	.	.	.	.
*>C	*	*>C	*	*
!	!	!LO:TX:a:B:t=C	!	!
.	.	(>(8qccc/	4	] <
*ped	*	*	*	*
16AA-\LL	.	16bb-\LL)	.	.
16E-\	3	16aan\	.	.
16G\	2	16bb-\	.	.
16d-\	.	16ccc\	1	.
16G\	.	16ddd-\	2	.
16E-\JJ	.	16dddn\JJ	3	[[
*Xped	*	*	*	*
!!LO:PB:g=original
=19	=19	=19	=19	=19
*ped	*	*	*	*
16AA-\LL	.	16fff~\LL	.	>
16E-\	.	16eee-\JJ	.	.
16A-\	.	8.gg\L	1	.
16c\	.	.	.	.
16A-\	.	.	.	.
*Xped	*	*	*	*
16E-\JJ	.	(16aa-\Jk)	3	.
*ped	*	*	*	*
16AA-\LL	.	16ccc~\LL	.	] >
16E-\	.	16bb-\JJ	.	.
16G\	.	8.ff-X\L	2	.
16d-\	.	.	.	.
16G\	.	.	.	.
16E-\JJ	.	16ee-\Jk	.	.
*Xped	*	*	*	*
=20	=20	=20	=20	=20
*ped	*	*	*	*
16AA-\LL	.	4aa-\	4	.
16E-\	.	.	.	.
16A-\	.	.	.	.
16c\	.	.	.	.
16A-\	.	(16gg\LL)	.	] <
*Xped	*	*	*	*
16E-\JJ	.	16ff\JJ	.	.
*ped	*	*	*	*
16AA-\LL	.	16ff~\LL	3	[ >
16E-\	.	16ee-\	.	.
16G\	.	16ddn\	.	.
16d-\	.	16ee-\	4	.
16G\	.	16dd-X\	.	.
16E-\JJ	.	16b-\JJ	2	.
*Xped	*	*	*	*
=21	=21	=21	=21	=21
*	*	*^	*	*
16AA-\LL	.	16bn~>/LL	4.ryy	.	.
16E-\	.	16cc/	.	.	.
16A-\	.	16g/	.	1	.
16c\	.	16b-X/	.	4	.
16A-\	.	16a-/	.	.	.
16E-\JJ	.	(>16f/JJ)	.	2	.
16AA-\LL	.	16f~>/LL	4ryy	3	] <
!	!	!LO:TUP:b	!	!	!
16E-\	.	48e-/L	.	.	.
.	.	48f/	.	.	.
.	.	48e-/J	.	.	.
16G\	.	16dn/	.	.	.
16B-\	.	16e-/	.	.	.
16G\	.	16.cc~/	8d-X\	5	[ >
16E-\JJ	.	.	.	.	.
.	.	32b-/JJk	.	.	.
!!LO:LB:g=original
=22	=22	=22	=22	=22	=22
*^	*	*	*	*	*
!	!	!	!LO:TX:a:i:t=poco ritard.	!	!	!
4.AA-/	16AA-\LL	.	([<8a-/L)	4c\	34	.
.	16E-\	2	.	.	.	.
!	!	!	!LO:TX:b:t=l)	!	!	!
.	16A-\	.	16a-/L]	.	.	] <
.	16E-\	.	32f/L	.	3	.
.	.	.	32e-/J	.	.	.
.	16G\	.	16.cc/	8d-\	.	[ >
.	16E-\JJ	.	.	.	.	.
.	.	.	32b-/JJk	.	.	.
4.AA-/	16AA-\LL	.	(16a-/LL)	4c\	.	.
.	16E-\	.	48e-/L	.	2	] <
.	.	.	48f/	.	3	.
.	.	.	48e-/J	.	4	.
.	16A-\	.	16dn/	.	.	.
.	16E-\	.	16e-/	.	.	.
.	16G\	.	16.cc~/	8d-X\	.	[ >
.	16E-\JJ	.	.	.	.	.
.	.	.	32b-/JJk	.	.	.
*v	*v	*	*	*	*	*
*	*	*v	*v	*	*
=23	=23	=23	=23	=23
16AA-'/LL	.	(>8c'/L) 8a-	.	.
*	*below	*	*	*
16E-'/	2	.	.	.
16C'/	1	8c'/ 8e- 8a-	4	] >
16AA-'/	2	.	.	.
16EE-'/	4	8c'/J 8e- 8a-	.	.
16CC'/JJ	1	.	.	.
4AAA-/	3	4c/) 4e- 4a-	.	.
8r	.	8r	.	]
=24!|:	=24!|:	=24!|:	=24!|:	=24!|:
*ped	*	*	*	*
!	!	!LO:TX:a:B:t=D	!	!
!	!	!LO:TX:a:B:t=Più animato.	!	!
16FFF/ 16FF	.	(4.cc\ 4.ccc	.	ff <
!LO:TX:a:i:t=con disperazione	!	!	!	!
16F\LL 16A- 16c	.	.	.	.
16F\ 16A- 16c	.	.	.	.
16F\ 16A- 16c	.	.	.	.
16F\ 16A- 16c	.	.	.	.
16F\JJ 16A- 16c	.	.	.	.
16F\LL 16A- 16c	.	4ff\ 4fff	.	[ >
16F\ 16A- 16c	.	.	.	.
16F\ 16A- 16c	.	.	.	.
16F\ 16A- 16c	.	.	.	.
16F\ 16A- 16c	.	8f'\ 8ff	.	]]
16F\JJ 16A- 16c	.	.	.	.
*Xped	*	*	*	*
!!LO:LB:g=original
=25	=25	=25	=25	=25
*ped	*	*	*	*
16F\LL 16B- 16d-	5	4a-~\ 4aa-	.	>
16F\ 16B- 16d-	.	.	.	.
16F\ 16B- 16d-	.	.	.	.
16F\ 16B- 16d-	.	.	.	.
*Xped	*	*	*	*
16F\ 16B- 16d-	.	8g\) 8gg	.	.
16F\JJ 16B- 16d-	.	.	.	.
*ped	*	*	*	*
16F\LL 16B- 16d-	.	16r	.	] <
16F\ 16B- 16d-	.	(16g'\LL 16gg	.	.
16F\ 16B- 16d-	.	16a-'\ 16aa-	.	.
16F\ 16B- 16d-	.	16b-'\ 16bb-	.	.
16F\ 16B- 16d-	.	16cc'\ 16ccc	.	.
16F\JJ 16B- 16d-	.	16dd-'\JJ 16ddd-	.	[[
*Xped	*	*	*	*
=26	=26	=26	=26	=26
*ped	*	*	*	*
!LO:TX:a:t=m)	!	!	!	!
16F\LL 16G 16B-	.	4dd-\ 4ddd-	.	sf >
16F\ 16G 16B-	.	.	.	.
16F\ 16G 16B-	.	.	.	.
16F\ 16G 16B-	.	.	.	.
*Xped	*	*	*	*
16En\ 16G 16B-	.	8cc\ 8ccc	.	.
16E\JJ 16G 16B-	.	.	.	.
.	.	((8qa-'/ 8qaa-	.	] <
*ped	*	*	*	*
16E\LL 16B- 16c	.	8g'\L)) 8gg	.	.
16E\ 16B- 16c	.	.	.	.
16E\ 16B- 16c	.	8f#X'\ 8ff#X	.	.
16E\ 16B- 16c	.	.	.	.
16E\ 16B- 16c	.	8g'\J 8gg	.	[[
16E\JJ 16B- 16c	.	.	.	.
*Xped	*	*	*	*
!!LO:LB:g=original
=27	=27	=27	=27	=27
*ped	*	*	*	*
16F\LL 16A- 16c	5	4b-~\ 4bb-	5	>
16F\ 16A- 16c	.	.	.	.
16F\ 16A- 16c	.	.	.	.
16F\ 16A- 16c	.	.	.	.
*Xped	*	*	*	*
16F\ 16A- 16c	.	8a-\ 8aa-	.	.
16F\JJ 16A- 16c	.	.	.	.
*ped	*	*	*	*
!	!	!LO:TX:b:i:t=(rinf.)	!	!
16F\LL 16A- 16c	.	(8ff'\L) 8fff	.	] <
16F\ 16A- 16c	.	.	.	.
16F\ 16A- 16c	.	8gg'~\ 8ggg	.	.
16F\ 16A- 16c	.	.	.	.
16F\ 16A- 16c	.	8aa-'\J 8aaa-	.	[[
16F\JJ 16A- 16c	.	.	.	.
*Xped	*	*	*	*
=28	=28	=28	=28	=28
*ped	*	*	*	*
16F\LL 16Bn 16dn	.	4aa-~\ 4aaa-	.	sf >
16F\ 16B 16d	.	.	.	.
16F\ 16B 16d	.	.	.	.
16F\ 16B 16d	.	.	.	.
16F\ 16B 16d	.	8g\ 8gg	.	.
*Xped	*	*	*	*
16F\JJ 16B 16d	.	.	.	.
!LO:TX:a:t=n)	!	!	!	!
.	.	(8qee-/ 8qeee-	.	] <
*ped	*	*	*	*
16F\LL 16A- 16B	.	(8ddn'\L)) 8dddn	.	.
16F\ 16A- 16B	.	.	.	.
16F\ 16A- 16B	.	8dd-X'\ 8ddd-X	.	.
16F\ 16A- 16B	.	.	.	.
16F\ 16A- 16B	.	8ddn'\J 8dddn	.	[[
16F\JJ 16A- 16B	.	.	.	.
*Xped	*	*	*	*
=29	=29	=29	=29	=29
*ped	*	*	*	*
16E-\LL 16G 16c	5	4ff~\ 4fff	.	>
16E-\ 16G 16c	.	.	.	.
16E-\ 16G 16c	.	.	.	.
16E-\ 16G 16c	.	.	.	.
16E-\ 16G 16c	.	8ee-\ 8eee-	.	.
*Xped	*	*	*	*
16E-\JJ 16G 16c	.	.	.	.
*ped	*	*	*	*
16F\LL 16A- 16c	5	(4cc\) 4ccc	.	] <
16F\ 16A- 16c	.	.	.	.
16F\ 16A- 16c	.	.	.	.
16F\ 16A- 16c	.	.	.	.
!LO:TX:a:t=o)	!	!	!	!
16F\ 16d-X 16f	.	8a-\ 8aa-	.	[[
16F\JJ 16d- 16f	.	.	.	.
*Xped	*	*	*	*
!!LO:LB:g=original
=30	=30	=30	=30	=30
*ped	*	*	*	*
!	!	!LO:TX:b:i:t=sempre	!	!
16G\LL 16c 16e-	5	16g'\LL 16gg	.	ff
16G\ 16c 16e-	.	16gg'\ 16ggg	.	.
16G\ 16c 16e-	.	16ff'\ 16fff	.	.
16G\ 16c 16e-	.	16ee-'\ 16eee-	.	.
16G\ 16c 16e-	.	16ddn'\ 16dddn	.	.
16G\JJ 16c 16e-	.	16cc'\JJ 16ccc	.	.
*Xped	*above	*	*	*
!LO:TX:b:t=p)	!	!	!	!
16G'\LL 16dn	1	16bn'\LL 16bbn	.	>
16G'\ 16c	1	16a-'\ 16aa-	.	.
16G'\ 16Bn	2	16g'\ 16gg	.	.
16G'\ 16A-	3	16f'\ 16ff	.	.
16GG'\ 16G	1	16e-'\ 16ee-	.	.
16GG'\JJ 16F	1	16dn'\JJ 16ddn	.	.
*>C1	*	*>C1	*	*
=31	=31	=31	=31	=31
!	!	!LO:TX:b:t=cresc._:problem:dynamics with extension lines	!	!LO:HP:b:t=cresc.--:ext=cd
16C\ 16E-	4 2	(4c/) 4cc	.	] f <
16C'\LL 16c	.	.	.	.
16BB-X'\ 16B-X	.	.	.	.
16AA-'\ 16A-	.	.	.	.
16GG'\ 16G	.	8r	.	.
16FF'\JJ 16F	.	.	.	.
!	!	!LO:TX:a:t=q)	!	!
16EEn'/LL 16En	.	16c'\LL 16cc	.	.
16DD-X'/ 16D-X	.	16r	.	.
16CC'/ 16C	.	16en'\ 16een	.	.
16BBB-'/ 16BB-	.	16f'\ 16ff	.	.
16AAA-'/ 16AA-	.	16cc'\ 16ccc	.	.
16GGG'/JJ 16GG	.	16dd-'\JJ) 16ddd-	.	[[
*>C2	*	*>C2	*	*
=32:|!	=32:|!	=32:|!	=32:|!	=32:|!
!	!	!LO:TX:b:t=cresc._:problem:dynamics with extension lines	!	!LO:HP:b:t=cresc.--:ext=cd
16C'/ 16E-	4 2	(4c^/ 4cc	.	f <
*	*below	*	*	*
16C'/LL	3	.	.	.
16BBn'/	.	.	.	.
16C'/	.	.	.	.
16D-'/	.	8r	.	.
16Dn'/JJ	.	.	.	.
*	*above	*	*	*
16GG':/LL 16BB-X: 16E-:	1	4.r	.	[[
*	*below	*	*	*
16D'/	3	.	.	.
16E-'/	.	.	.	.
16F'/	.	.	.	.
16E-'/	.	.	.	.
16D-X'/JJ	.	.	.	.
*>D	*	*>D	*	*
!!LO:PB:g=original
=33!|:	=33!|:	=33!|:	=33!|:	=33!|:
*ped	*	*	*	*
!	!	!LO:TX:a:B:t=E	!	!
16AA-\ 16C 16A-	.	4.ee-\ 4.eee-	.	ff <
16F\LL 16A- 16c	4	.	.	.
16F\ 16A- 16c	.	.	.	.
16F\ 16A- 16c	.	.	.	.
16F\ 16A- 16c	.	.	.	.
16F\JJ 16A- 16c	.	.	.	.
16F\LL 16A- 16c	.	4aa-\ 4aaa-	.	[ >
16F\ 16A- 16c	.	.	.	.
16F\ 16A- 16c	.	.	.	.
16F\ 16A- 16c	.	.	.	.
16F\ 16A- 16c	.	8a-'\ 8aa-	.	.
16F\JJ 16A- 16c	.	.	.	.
*Xped	*	*	*	*
=34	=34	=34	=34	=34
*ped	*	*	*	*
16A-\LL 16d- 16f	5	4cc~\ 4ccc	.	.
16A-\ 16d- 16f	.	.	.	.
16A-\ 16d- 16f	.	.	.	.
16A-\ 16d- 16f	.	.	.	.
16A-\ 16d- 16f	.	8b-\ 8bb-	.	.
*Xped	*	*	*	*
16A-\JJ 16d- 16f	.	.	.	.
*ped	*	*	*	*
16A-\LL 16d- 16f	.	16r	.	] <
16A-\ 16d- 16f	.	(16b-'\LL) 16bb-	.	.
16A-\ 16d- 16f	.	16cc'\ 16ccc	.	.
16A-\ 16d- 16f	.	16dd-'\ 16ddd-	.	.
16A-\ 16d- 16f-X	.	16ee-'\ 16eee-	.	.
16A-\JJ 16d- 16f-	.	16ff-X'\JJ 16fff-X	.	[[
*Xped	*	*	*	*
!!LO:LB:g=original
=35	=35	=35	=35	=35
*ped	*	*	*	*
16G\LL 16B- 16d- 16f-X	5	4ff-X~\ 4fff-X	.	>
16G\ 16B- 16d- 16f-	.	.	.	.
16G\ 16B- 16d- 16f-	.	.	.	.
*Xped	*	*	*	*
16G\ 16B- 16d- 16f-	.	.	.	.
*ped	*above	*	*	*
16G\ 16B- 16d- 16e-	1	8ee-\ 8eee-	.	.
*Xped	*	*	*	*
16G\JJ 16B- 16d- 16e-	.	.	.	.
.	.	((8qcc/ 8qccc	.	] <
*ped	*	*	*	*
16G\LL 16B- 16d- 16e-	.	8b-'\L)) 8bb-	.	.
16G\ 16B- 16d- 16e-	.	.	.	.
*Xped	*	*	*	*
16G\ 16B- 16d- 16e-	.	8an'\ 8aan	.	.
16G\ 16B- 16d- 16e-	.	.	.	.
*ped	*	*	*	*
16G\ 16B- 16d- 16e-	.	8b-'\J 8bb-	.	[[
16G\JJ 16B- 16d- 16e-	.	.	.	.
*Xped	*	*	*	*
=36	=36	=36	=36	=36
*ped	*below	*	*	*
16A-\LL 16c 16e-	4	4dd-~\ 4ddd-	.	>
16A-\ 16c 16e-	.	.	.	.
16A-\ 16c 16e-	.	.	.	.
16A-\ 16c 16e-	.	.	.	.
16A-\ 16c 16e-	.	8cc\ 8ccc	.	.
*Xped	*	*	*	*
16A-\JJ 16c 16e-	.	.	.	.
*ped	*	*	*	*
16A-\LL 16c 16e-	.	(8cc'\L) 8ccc	.	] <
16A-\ 16c 16e-	.	.	.	.
16A-\ 16c 16e-	.	8dd-'\ 8ddd-	.	.
16A-\ 16c 16e-	.	.	.	.
16A-\ 16c 16e-	.	8cc'\J 8ccc	.	[[
16A-\JJ 16c 16e-	.	.	.	.
*Xped	*	*	*	*
!!LO:LB:g=original
=37	=37	=37	=37	=37
*ped	*	*	*	*
16En\LL 16B- 16c	5	4cc\ 4ccc	.	>
16E\ 16B- 16c	.	.	.	.
16E\ 16B- 16c	.	.	.	.
16E\ 16B- 16c	.	.	.	.
16E\ 16B- 16c	.	8g\ 8gg	.	.
*Xped	*	*	*	*
16E\JJ 16B- 16c	.	.	.	.
.	.	8qa-/ (>(8qaa-)	.	] <
*ped	*	*	*	*
16E\LL 16B- 16c	.	8g'\L 8gg)	5	.
16E\ 16B- 16c	.	.	.	.
*Xped	*	*	*	*
16E\ 16B- 16c	.	8f#X'\ 8ff#X	.	.
16E\ 16B- 16c	.	.	.	.
*ped	*	*	*	*
16E\ 16B- 16c	.	8g'\J 8gg	.	[[
16E\JJ 16B- 16c	.	.	.	.
*Xped	*	*	*	*
=38	=38	=38	=38	=38
*ped	*	*	*	*
16F\LL 16A- 16c	4	4b-~\ 4bb-	.	>
16F\ 16A- 16c	.	.	.	.
16F\ 16A- 16c	.	.	.	.
16F\ 16A- 16c	.	.	.	.
*Xped	*	*	*	*
16F\ 16A- 16c	.	8a-\ 8aa-	.	.
16F\JJ 16A- 16c	.	.	.	.
*ped	*	*	*	*
16F\LL 16A- 16c	.	16r	.	] <
16F\ 16A- 16c	.	(16cc'\LL) 16ccc	.	.
16F\ 16A- 16c	.	16ddn'\ 16dddn	.	.
16F\ 16A- 16c	.	16een'\ 16eeen	.	.
16F\ 16A- 16c	.	16ff'\ 16fff	.	.
16F\JJ 16A- 16c	.	16gg'\JJ 16ggg	.	[[
*Xped	*	*	*	*
!!LO:LB:g=original
=39	=39	=39	=39	=39
*ped	*	*	*	*
!	!	!LO:TX:b:i:t=sempre	!	!
16D-\LL 16F 16c	5	4.aa-\ 4.aaa-	.	ff
16D-\ 16F 16c	.	.	.	.
16D-\ 16F 16c	.	.	.	.
16D-\ 16F 16c	.	.	.	.
16D-\ 16F 16c	.	.	.	.
*Xped	*	*	*	*
16D-\JJ 16F 16c	.	.	.	.
*ped	*above	*	*	*
16D-\LL 16F 16Bn	1	4.bn\ 4.bbn	.	>
16D-\ 16F 16B	.	.	.	.
16D-\ 16F 16B	.	.	.	.
16D-\ 16F 16B	.	.	.	.
16D-\ 16F 16B	.	.	.	.
16D-\JJ 16F 16B	.	.	.	.
=40	=40	=40	=40	=40
*Xped	*below	*	*	*
16C\LL 16En 16c	.	8cc'\) 8ccc	.	.
16C\JJ 16E 16c	.	.	.	.
16Dn\LL 16F 16c	5	8ccc'\L 8cccc	.	] f <
16D\ 16F 16c	.	.	.	.
!	!	!LO:TX:b:i:t=e rit.	!	!
16D#X\ 16F#X 16c	5	8cc'\J 8ccc	.	.
16D#\JJ 16F# 16c	.	.	.	.
16E\LL 16G 16c	5	8ccc'\L 8cccc	.	.
16E\ 16G 16c	.	.	.	.
16Fn\ 16A- 16c	5	8cc'\ 8ccc	.	.
16F\ 16A- 16c	.	.	.	.
16G\ 16B- 16c	4	8cc'\J 8ccc	.	.
16G\JJ 16B- 16c	.	.	.	.
=41	=41	=41	=41	=41
*ped	*	*	*	*
!	!	!LO:TX:b:i:t=a tempo	!	!
!	!	!LO:TX:a:B:t=F	!	!
16FF/ 16F	.	(4.cc\ 4.ccc	.	ff <
16F\LL 16A- 16c	4	.	.	.
16F\ 16A- 16c	.	.	.	.
16F\ 16A- 16c	.	.	.	.
16F\ 16A- 16c	.	.	.	.
16F\JJ 16A- 16c	.	.	.	.
16F\LL 16A- 16c	.	4ff\ 4fff	.	[ >
16F\ 16A- 16c	.	.	.	.
16F\ 16A- 16c	.	.	.	.
16F\ 16A- 16c	.	.	.	.
16F\ 16A- 16c	.	8f'\ 8ff	.	]]
16F\JJ 16A- 16c	.	.	.	.
*Xped	*	*	*	*
!!LO:LB:g=original
=42	=42	=42	=42	=42
*ped	*	*	*	*
16F\LL 16B- 16d-	5	4a-~\ 4aa-	.	>
16F\ 16B- 16d-	.	.	.	.
16F\ 16B- 16d-	.	.	.	.
16F\ 16B- 16d-	.	.	.	.
16F\ 16B- 16d-	.	8g\ 8gg	.	.
*Xped	*	*	*	*
16F\JJ 16B- 16d-	.	.	.	.
*ped	*	*	*	*
16F\LL 16B- 16d-	.	16r	.	] <
16F\ 16B- 16d-	.	(16g'\LL) 16gg	.	.
16F\ 16B- 16d-	.	16a-'\ 16aa-	.	.
16F\ 16B- 16d-	.	16b-'\ 16bb-	.	.
16F\ 16B- 16d-	.	16cc'\ 16ccc	.	.
16F\JJ 16B- 16d-	.	16dd-'\JJ 16ddd-	.	[[
*Xped	*	*	*	*
=43	=43	=43	=43	=43
*ped	*	*	*	*
16F\LL 16An 16e-	.	4dd-~\ 4ddd-	.	>
16F\ 16A 16e-	.	.	.	.
16F\ 16A 16e-	.	.	.	.
16F\ 16A 16e-	.	.	.	.
16F\ 16A 16e-	.	8cc\ 8ccc	.	.
*Xped	*	*	*	*
16F\JJ 16A 16e-	.	.	.	.
*ped	*	*	*	*
16F\LL 16A 16e-	.	(16bn'\LL) 16bbn	.	] <
16F\ 16A 16e-	.	16cc'\ 16ccc	.	.
16F\ 16A 16e-	.	16dd-'\ 16ddd-	.	.
16F\ 16A 16e-	.	16cc'\ 16ccc	.	.
16F\ 16A 16e-	.	16gg-X'\ 16ggg-X	.	.
16F\JJ 16A 16e-	.	32r	.	.
.	.	32ff'\JJk 32fff	.	[[
*Xped	*	*	*	*
=44	=44	=44	=44	=44
*ped	*	*	*	*
16BB-\LL 16B-	.	4.ee-~\ 4.eee-	.	>
16B-\ 16d- 16f	4	.	.	.
16B-\ 16d- 16f	.	.	.	.
16B-\ 16d- 16f	.	.	.	.
16B-\ 16d- 16f	.	.	.	.
*Xped	*	*	*	*
16B-\JJ 16d- 16f	.	.	.	.
*ped	*	*	*	*
16B-\LL 16d- 16f	.	4dd-\ 4ddd-	4	.
16B-\ 16d- 16f	.	.	.	.
16B-\ 16d- 16f	.	.	.	.
16B-\ 16d- 16f	.	.	.	.
16B-\ 16d- 16f	.	8r	.	]]
16B-\JJ 16d- 16f	.	.	.	.
*Xped	*	*	*	*
!!LO:PB:g=original
=45	=45	=45	=45	=45
*ped	*	*	*	*
!	!	!LO:TX:b:t=cresc._:problem:dynamics with extension lines	!	!LO:HP:b:t=cresc.--:ext=cd
16B-\LL 16d- 16g	.	(4.een\) 4.eeen	.	f <
16B-\ 16d- 16g	.	.	.	.
16B-\ 16d- 16g	.	.	.	.
16B-\ 16d- 16g	.	.	.	.
16B-\ 16d- 16g	.	.	.	.
*Xped	*	*	*	*
16B-\JJ 16d- 16g	.	.	.	.
*ped	*	*	*	*
16A-\LL 16c 16f	.	4ff\ 4fff	.	.
16A-\ 16c 16f	.	.	.	.
16A-\ 16c 16f	.	.	.	.
*Xped	*	*	*	*
16A-\ 16c 16f	.	.	.	.
*ped	*	*	*	*
16En\ 16B- 16c	.	8gg\ 8ggg	.	.
16E\JJ 16B- 16c	.	.	.	.
*Xped	*	*	*	*
=46	=46	=46	=46	=46
*ped	*	*	*	*
16F\LL 16A- 16c	.	8aa-\L 8aaa-	.	.
16F\ 16A- 16c	.	.	.	.
*Xped	*	*	*	*
*ped	*	*	*	*
16E-X\ 16F 16c	.	8aan\ 8aaan	.	.
16E-\ 16F 16c	.	.	.	.
*Xped	*	*	*	*
*ped	*	*	*	*
16Dn\ 16F 16B-	.	8bb-\J 8bbb-	.	.
*Xped	*	*	*	*
16D\JJ 16F 16B-	.	.	.	.
*ped	*	*	*	*
16D-X\LL 16F 16A- 16Bn	.	4.bbn\ 4.bbbn	.	sff [[
16D-\ 16F 16A- 16B	.	.	.	.
16D-\ 16F 16A- 16B	.	.	.	.
16D-\ 16F 16A- 16B	.	.	.	.
16D-\ 16F 16A- 16B	.	.	.	.
16D-\JJ 16F 16A- 16B	.	.	.	.
*Xped	*	*	*	*
!!LO:LB:g=original
=47	=47	=47	=47	=47
*ped	*	*	*	*
!	!	!LO:TX:a:i:t=riten.	!	!
16C\LL 16F 16A- 16c	.	16ccc'\LL 16cccc	.	ff
16C\ 16F 16A- 16c	.	16aa-'\ 16aaa-	.	.
16C\ 16F 16A- 16c	.	16ff'\ 16fff	.	.
16C\ 16F 16A- 16c	.	16cc'\ 16ccc	.	.
16C\ 16F 16A- 16c	.	16a-'\ 16aa-	.	.
*Xped	*	*	*	*
16C\JJ 16F 16A- 16c	.	16f'\JJ 16ff	.	.
*ped	*	*	*	*
16C\LL 16En 16B-	.	4a-~\ 4aa-	.	>
16C\ 16E 16B-	.	.	.	.
16C\ 16E 16B-	.	.	.	.
16C\ 16E 16B-	.	.	.	.
16C\ 16E 16B-	.	8g\ 8gg	.	.
16C\JJ 16E 16B-	.	.	.	.
*Xped	*	*	*	*
*>D1	*	*>D1	*	*
=48	=48	=48	=48	=48
*	*above	*	*	*
!	!	!LO:TX:a:i:t=a tempo	!	!LO:DY:b:t=(f)
!	!	!LO:TX:b:t=cresc._:problem:dynamics with extension lines	!	!LO:HP:b:t=cresc.--:ext=cd
16F\ 16A-	2 1	4f\) 4ff	.	] f <
16En'\LL	.	.	.	.
16F'\	.	.	.	.
16A-'\	.	.	.	.
16G'\	.	8r	.	[
16F'\JJ	1	.	.	.
16GG':\LL 16BB-: 16E-X:	.	4.r	.	[[
16Dn'\	3	.	.	.
16E-'\	.	.	.	.
16F'\	.	.	.	.
16E-'\	.	.	.	.
16D-X'\JJ	.	.	.	.
*>D2	*	*>D2	*	*
!!LO:LB:g=original
=49:|!	=49:|!	=49:|!	=49:|!	=49:|!
!	!	!	!	!LO:DY:b:t=(mf)
16F\ 16A-	.	(4f\ 4ff	.	mf <
*>E	*	*>E	*	*
!	!	!LO:TX:a:B:t=G	!	!
16FF/LL 16F	.	.	.	.
16FF/ 16F	.	.	.	.
16FF/ 16F	.	.	.	.
!	!	!LO:TX:a:i:t=a tempo	!	!
16FF/ 16F	.	8r	.	.
16FF/JJ 16F	.	.	.	.
[4.FF/ [4.F	.	16r	.	[ >
.	.	16een'\LL 16gg 16bb- 16ddd-	5	.
.	.	16ff'\ 16aa- 16ccc	5	.
.	.	16dd-'\ 16ee 16gg 16bb-	5	.
.	.	16cc'\ 16ff 16aa-	5	.
.	.	16b-'\JJ 16dd- 16ee 16gg	5	.
=50	=50	=50	=50	=50
!	!	!	!	!LO:DY:b:t=(mp)
16FF/] 16F]	.	(4a-\) 4cc 4ff	5	] mp <
16FFF/LL 16FF	.	.	.	.
16FFF/ 16FF	.	.	.	.
16FFF/ 16FF	.	.	.	.
16FFF/ 16FF	.	8r	.	.
16FFF/JJ 16FF	.	.	.	.
[4.FFF/ [4.FF	.	16r	.	[ >
.	.	16en'/LL 16g 16b- 16dd-	5	.
.	.	16f'/ 16a- 16cc	5	.
.	.	16d-'/ 16e 16g 16b-	5	.
.	.	16c'/ 16f 16a-	5	.
.	.	16B-'/JJ 16d- 16e 16g	5	.
!!LO:LB:g=original
=51	=51	=51	=51	=51
8FFF/] 8FF]	.	16A-'/LL 16c 16f	5	.
.	.	16A-'/ 16c 16f	.	.
16r	.	(>16A-'/JJ) 16c 16f	.	.
16FF'/ 16F	.	16r	.	] p <
16EEn'/LL 16En	.	8r	.	.
*ped	*	*	*	*
16FF'/JJ 16F	.	.	.	.
8r	.	16A-'/LL 16d- 16f	4	.
.	.	16A-'/ 16d- 16f	.	.
*Xped	*	*	*	*
16r	.	16A-'/JJ 16d- 16f	.	.
16DD-'/ 16D-	.	16r	.	.
16CC'/LL 16C	.	8r	.	.
16DD-'/JJ 16D-	.	.	.	.
=52	=52	=52	=52	=52
*ped	*	*	*	*
!	!	!LO:TX:a:t=r)	!	!
8r	.	16B-'/LL 16d- 16f 16g	5	.
.	.	16B-'/ 16d- 16f 16g	.	.
*Xped	*	*	*	*
16r	.	16B-'/JJ 16d- 16f 16g	.	.
16BBB-'/ 16BB-	.	16r	.	.
16AAAn'/LL 16AAn	.	8r	.	.
*ped	*	*	*	*
16BBB-'/JJ 16BB-	.	.	.	.
8r	.	16B-'/LL 16en 16cc	.	[ >
.	.	16B-'/ 16e 16cc	.	.
*Xped	*	*	*	*
16r	.	16B-'/JJ 16e 16cc	.	.
16CC'/ 16C	.	16r	.	.
16BBBn'/LL 16BBn	.	8r	.	.
16CC'/JJ 16C	.	.	.	.
=53	=53	=53	=53	=53
*ped	*	*	*	*
8r	.	16A-'/LL 16c 16f	5	.
.	.	16A-'/ 16c 16f	.	.
*Xped	*	*	*	*
16r	.	(16A-'/JJ) 16c 16f	.	.
!	!	!LO:TX:b:t=cresc._:problem:dynamics with extension lines	!	!LO:HP:b:t=cresc.--:ext=cd
16FF'/ 16F	.	16r	.	] p <
!	!	!LO:TX:a:i:t=poco a poco accel.	!	!
16EEn'/LL 16En	.	8r	.	.
16FF'/JJ 16F	.	.	.	.
*ped	*	*	*	*
8r	.	16A-'/LL 16d- 16f	4	.
.	.	16A-'/ 16d- 16f	.	.
*Xped	*	*	*	*
16r	.	16A-'/JJ 16d- 16f	.	.
16DD-'/ 16D-	.	16r	.	.
16CC'/LL 16C	.	8r	.	.
16DD-'/JJ 16D-	.	.	.	.
!!LO:LB:g=original
=54	=54	=54	=54	=54
*ped	*	*	*	*
!	!	!LO:TX:a:t=s)	!	!
8r	.	16B-'/LL 16d- 16f 16g-X	4	.
.	.	16B-'/ 16d- 16f 16g-	.	.
*Xped	*	*	*	*
16r	.	16B-'/JJ 16d- 16f 16g-	.	.
16BBB-'/ 16BB-	.	16r	.	.
16AAAn'/LL 16AAn	.	8r	.	.
16BBB-'/JJ 16BB-	.	.	.	.
*ped	*	*	*	*
8r	.	16B-'/LL 16d- 16f 16gn	5	.
.	.	16B-'/ 16d- 16f 16g	.	.
*Xped	*	*	*	*
16r	.	16B-'/JJ 16d- 16f 16g	.	.
16BBB-'/ 16BB-	.	16r	.	.
16AAA'/LL 16AA	.	8r	.	.
16BBB-'/JJ 16BB-	.	.	.	.
=55	=55	=55	=55	=55
*ped	*	*	*	*
16BBBn'/LL 16BBn	.	16dn'>/LL 16f 16a-	4	f
16BBB'/ 16BB	.	16d'>/ 16f 16a-	.	.
16BBB'/JJ 16BB	.	16d'>/JJ 16f 16a-	.	.
!	!	!LO:TX:b:i:t=strepitoso	!	!
16BBB'/ 16BB	.	16f/ 16a- 16ddn	5	.
16BBB'/LL 16BB	.	16f'\LL 16a- 16dd	4	.
16BBB'/JJ 16BB	.	16a-'\JJ 16dd 16ff	5	.
16BBB'/LL 16BB	.	16a-'\LL 16dd 16ff	4	.
16BBB'/ 16BB	.	16dd'\ 16ff 16aa-	5	.
16BBB'/ 16BB	.	16dd'\ 16ff 16aa-	4	.
16BBB'/ 16BB	.	16ff'\ 16aa- 16dddn	5	.
16BBB'/ 16BB	.	16ff'\ 16aa- 16ddd	4	.
16BBB'/JJ 16BB	.	16aa-'\JJ 16ddd 16fff	5	[[
=56	=56	=56	=56	=56
*	*	*8va	*	*
!	!	!LO:TX:a:t=t)	!	!
4BBBn`/ 4BBn	.	4aa-`\ 4dddn 4fff 4aaa-	.	[ ff
*	*	*X8va	*	*
8r	.	8r	.	.
*Xped	*	*	*	*
4.r	.	4.r	.	.
=57	=57	=57	=57	=57
*ped	*	*	*	*
4CC`/ 4C	.	4cc`\ 4ff 4aa- 4ccc	.	sff
8r	.	8r	.	.
*Xped	*	*	*	*
4.r	.	4.r	.	.
!!LO:PB:g=original
=58	=58	=58	=58	=58
*ped	*	*	*	*
4CC/ 4C	.	4b-:\ 4een: 4ccc:	.	sff
8r	.	8r	.	.
*Xped	*below	*clefF4	*	*
!	!	!LO:TX:a:i:t=ritard.	!	!
16D-/LL	2	16d-\LL	3	>
16C/	.	16c\	.	.
16BBn/	1	16Bn\	.	.
16BB-X/	.	16B-X\	3	.
16AA-/	.	16A-\	.	.
16GG/JJ	1	16G\JJ	.	]]
=59	=59	=59	=59	=59
!	!	!	!	!LO:DY:b:t=(mf)
16FF/	.	(4F\)	2	mf <
16FFF'/LL 16FF	.	.	.	.
16FFF'/ 16FF	.	.	.	.
16FFF'/ 16FF	.	.	.	.
16FFF'/ 16FF	.	8r	.	.
16FFF'/JJ 16FF	.	.	.	.
[4.FFF/ [4.FF	.	16r	.	[ >
.	.	16En'\LL 16G 16B- 16d-	5	.
.	.	16E'\ 16G 16B- 16d-	.	.
.	.	16E'\ 16G 16B- 16d-	.	.
.	.	16E'\ 16G 16B- 16d-	.	.
.	.	16E'\JJ 16G 16B- 16d-	.	]]
=60	=60	=60	=60	=60
16FFF/] 16FF]	.	(4F\) 4A- 4c	.	<
16FFF'/LL 16FF	.	.	.	.
16FFF'/ 16FF	.	.	.	.
16FFF'/ 16FF	.	.	.	.
16FFF'/ 16FF	.	8r	.	.
16FFF'/JJ 16FF	.	.	.	.
[4.FFF/ [4.FF	.	16r	.	[ >
.	.	16D-'\LL 16En 16G 16B-	5	.
.	.	16D-'\ 16E 16G 16B-	.	.
.	.	16D-'\ 16E 16G 16B-	.	.
.	.	16D-'\ 16E 16G 16B-	.	.
.	.	16D-'\JJ 16E 16G 16B-	.	.
!!LO:LB:g=original
=61	=61	=61	=61	=61
16FFF/] 16FF]	.	(8C\) 8F 8A-	.	.
16FFF'/ 16FF	.	.	.	.
[4FFF/ [4FF	.	16r	.	] >
.	.	16BB-'\LL 16D- 16En 16G	5	.
.	.	16BB-'\ 16D- 16E 16G	.	.
.	.	16AA-'\JJ 16C 16F	.	.
16FFF/] 16FF]	.	(8AA-'\) 8C 8F	.	] >
16FFF'/ 16FF	.	.	.	.
[4FFF/ [4FF	.	16r	.	]
.	.	16BB-'\LL 16D- 16E 16G	5	>
.	.	16BB-'\ 16D- 16E 16G	.	.
.	.	16AA-'\JJ 16C 16F	.	.
=62	=62	=62	=62	=62
*ped	*	*	*	*
16FFF/] 16FF]	.	(16AA-'/) 16C 16F	.	]]
!	!	!LO:TX:b:t=più dimin._:problem:dynamics with extension lines	!	!LO:HP:b:t=più dimin.-:ext=cd
16ryy	.	16FFF<'/LL 16FF<	.	>
8ryy	.	16C'\ 16F 16A-	4	.
.	.	16FFF<'/ 16FF<	.	.
2ryy	.	16F'\ 16A- 16c	4	.
.	.	16FFF<'/JJ 16FF<	.	.
*	*	*clefG2	*	*
.	.	16A-\LL 16c 16f	5	.
.	.	16FF<'/ 16F<	.	.
.	.	16c\ 16f 16a-	4	.
.	.	16FF<'/ 16F<	.	.
.	.	16f\ 16a- 16cc	4	.
.	.	16FF<'/JJ 16F<	.	]]
=63	=63	=63	=63	=63
!	!	!LO:TX:a:t=P:problem:mixed beam	!	!
8ryy	.	8a-'\L 8cc 8ff	5	pp
8ryy	.	8FF<'/J) 8F<	.	.
8r	.	8r	.	.
4.r	.	(4f/	2	p <
.	.	8f-X/	.	.
!!LO:LB:g=original
=64	=64	=64	=64	=64
*ped	*	*	*	*
[4.GG:\ [4.D-: [4.B-:	.	4e-/	.	.
.	.	8r	.	[
4GG\] 4D-] 4B-]	.	[4.eee-\	4	sf >
8r	.	.	.	.
=65	=65	=65	=65	=65
2.r	.	16eee-\LL]	.	.
.	.	16dddn'\	.	.
.	.	16ddd-X'\	.	.
.	.	16ccc'\	.	.
.	.	16bb-'\	3	.
.	.	[16aa-\JJ	.	.
.	.	16aa-\KL]	.	.
.	.	8gg\	.	.
.	.	8ff\	2	.
.	.	16ff-X,\Jk)	.	]]
*Xped	*	*	*	*
=66||	=66||	=66||	=66||	=66||
!	!	!LO:TX:a:B:t=Tempo I.	!	!
!	!	!LO:TX:a:B:t=H	!	!
!	!	!LO:TX:b:i:t=dolce	!	!
*ped	*above	*	*	*
8AAA-/	.	([4ee-\	3	<
8A-\L 8c	2	.	.	.
*Xped	*	*	*	*
!	!	!LO:TUP:a	!	!
8E-\J	4	24ee-\LL]	.	.
.	.	24ddn\	.	.
.	.	24ee-\JJ	.	.
*ped	*	*	*	*
8AAA-/	.	8ff'~\L	.	[ >
8A-\L 8c-X	.	8ee-'\	.	.
8F\J	.	8dd'\J	.	.
*Xped	*	*	*	*
=67	=67	=67	=67	=67
*ped	*	*	*	*
8AAA-/	.	4.ee-\	.	.
8A-\L 8c	.	.	.	.
*Xped	*	*	*	*
8E-\J	.	.	.	.
*ped	*	*	*	*
8FF/	.	4.a-/)	1	]]
!LO:TX:b:i:t=simile	!	!	!	!
8A-\L 8c	.	.	.	.
8F\J	.	.	.	.
!!LO:LB:g=original
=68	=68	=68	=68	=68
8DD-/	.	(4b-\	4	<
8F\L 8B-	.	.	.	.
8D-\J	.	8f/	1	.
.	.	(16qqg/LL	2	.
.	.	16qqa-/JJ)	4	.
8EE-/	.	8g'>/L	3	.
*	*below	*	*	*
8G\L 8d-	2	8f'>/	.	.
8E-\J	.	8e-'>/J	1	.
=69	=69	=69	=69	=69
8AA-/	.	16a-'\LL	2	.
.	.	16b-'\	.	.
8A-\L 8c	.	16cc'\	1	.
.	.	16dd-'\	3	.
.	.	8qdd-/	2	.
8E-\J	.	16ff'~\	.	.
.	.	16ee-'\JJ	.	.
.	.	(8qee-/	4	[ >
8EE-/	.	4b-\))	1	.
8G\L 8d-	2	.	.	.
8E-\J	.	8r	.	]]
=70	=70	=70	=70	=70
!	!	!LO:TX:b:t=cresc._:problem:dynamics with extension lines	!	!LO:HP:b:t=cresc.--:ext=cd
8AAA-/	.	([4ee-\	3	<
8A-\L 8c	.	.	.	.
!	!	!LO:TUP:a	!	!
8E-\J	.	24ee-\LL]	.	.
.	.	24ddn\	.	.
.	.	24ee-\JJ	.	.
8AAA-/	.	8ff'~\L	.	.
8A-\L 8c-X	.	8ee-'\	.	.
8F\J	.	8dd'\J	1	.
=71	=71	=71	=71	=71
8AAA-/	.	4.ee-\	.	.
8A-\L 8c	.	.	.	.
*	*above	*	*	*
8AA-\J	5	.	.	.
8AAn\L	5	4.ccc\	.	[[
*	*below	*	*	*
8F#X\ 8e-	3	.	.	.
*	*above	*	*	*
8AA\J	5	.	.	.
!!LO:LB:g=original
=72	=72	=72	=72	=72
!	!	!LO:TX:b:i:t=sempre	!	!
8BB-\L	5	16bb-'\LL	3	f
.	.	16bb-'\ 16ggg	5	.
*	*below	*	*	*
8G\ 8e-	3	16aa-'\ 16fff	5	.
.	.	16gg'\ 16eee-	5	.
8B-\J	2	16ff'\ 16dddn	5	.
.	.	16ee-'\JJ 16ccc	5	.
*ped	*	*	*	*
!	!	!LO:TX:a:i:t=ritard.	!	!
8BBB-'\L	.	16ddn'\LL 16bb-	4	.
.	.	16cc'\ 16aan	5	.
*Xped	*above	*	*	*
8B-'\	1	16cc-X'\ 16aa-X	4	.
.	.	16b-'\ 16gg	.	5
8BB-'\J	3	16b--'\ 16gg-X	4	.
.	.	16a-'\JJ 16ff	5	.
=73	=73	=73	=73	=73
*ped	*	*	*	*
!	!	!LO:TX:a:i:t=a tempo	!	!
16EE-'\LL	.	4gn\ 4ee-	4	>
16BB-'\	3	.	.	.
16E-'\	2	.	.	.
16G'\	1	.	.	.
16B-'\	3	8r	.	.
16e-'\JJ	2	.	.	.
*Xped	*	*	*	*
4g\	.	8r	.	.
!	!	!LO:TX:a:B:t=I	!	!LO:DY:b:t=(mf)
.	.	(8ee-'\L)	2	] mf <
8r	.	8ff'\J	.	[[
=74	=74	=74	=74	=74
.	.	(16qqee-/LL	.	sf >
.	.	16qqff/JJ)	.	.
*ped	*below	*	*	*
8EE-/	.	4gg-X\	.	.
8e-\L 8g-X	2	.	.	.
*Xped	*	*	*	*
8B-\J	.	8ff\	.	.
.	.	(16qqee-/LL	2	.
.	.	16qqff/JJ)	4	.
*ped	*	*	*	*
8FF/	.	8ee-'\L	3	.
8An\L 8e-	2	8dd-'\	.	.
8F\J	.	8cc'\J	.	.
*Xped	*	*	*	*
=75	=75	=75	=75	=75
*ped	*	*	*	*
8BB-/	.	4.dd-\	4	.
8B-\L 8d-	.	.	.	.
*Xped	*	*	*	*
8F\J	4	.	.	.
*ped	*	*	*	*
8GG-X/	.	4.b-\	.	]]
8B-\L 8d-	.	.	.	.
8G-X\J	3	.	.	.
*Xped	*	*	*	*
!!LO:PB:g=original
=76	=76	=76	=76	=76
*ped	*	*	*	*
!LO:TX:b:i:t=simile	!	!	!	!
8EE-/	.	(4cc\)	4	>
8G-X\L 8c	2	.	.	.
8E-\J	.	8b-\	.	.
8FF/	.	4.ant/	.	.
8c\L 8e-	.	.	.	.
*	*above	*	*	*
8F\J	4	.	.	.
.	.	16qqgn/LL	.	.
.	.	16qqa/JJ	.	.
=77	=77	=77	=77	=77
8BB-/	.	4b-\	.	.
8B-\L 8d-	.	.	.	.
8F\J	.	8r	.	.
!	!	!LO:TX:b:i:t=(rinf.)	!	!
8AA-X/	.	(4.b-\)	2	] <
8B-\L 8d-	.	.	.	.
8F-X\J	.	.	.	.
=78	=78	=78	=78	=78
8GG/	.	8cc'~>/L	.	.
8d-\L 8e-	.	8b-'/	.	.
8E-\J	.	8a-'/J	.	.
.	.	(8qa-/	4	.
8D-\L	5	8g'/L)	.	.
8G\ 8B-	.	8f'/	.	.
8D-\J	4	8e-'/J	1	[[
=79	=79	=79	=79	=79
*^	*	*	*	*
8ryy	8C\L	.	4.ee-\	3	>
8ryy	8A-\ 8e-	2	.	.	.
8ryy	8C\J	.	.	.	.
*	*ped	*	*	*	*
4F/	8F\L	3	4aa-\	.	.
*	*Xped	*	*	*	*
.	8A-\J 8c-X	.	.	.	.
8ryy	8F-X\	4	([8dn^>/)	2	] <
*v	*v	*	*	*	*
!!LO:LB:g=original
=80	=80	=80	=80	=80
8E-\L	.	16dn/LL]	.	.
.	.	16e-'/	.	.
8A-\ 8cn	.	16f'/	1	.
.	.	16g'/	.	.
!	!	!LO:TX:a:i:t=ritard.	!	!
8E-\J	.	16a-'/	.	.
.	.	16b-'/JJ	.	.
*ped	*below	*	*	*
8EE-/	.	16cc'\LL	1	.
.	.	16dd-X'\	3	.
8G\L 8d-X	2	16ddn'\	1	.
.	.	16ee-'\JJ	3	.
.	.	(8qee-/	1	[ >
8E-\J	3	16ee-~\LL) 16ccc	5	.
.	.	32r	.	.
.	.	32dd-X\JJk 32bb-	4	.
*Xped	*	*	*	*
=81	=81	=81	=81	=81
*ped	*	*	*	*
*	*	*^	*	*
!	!	!LO:TX:a:i:t=a tempo	!	!	!
8AAA-/	.	4cc\ 4aa-	4ryy	.	.
8A-\L 8c	.	.	.	.	.
*Xped	*	*	*	*	*
8E-\J	.	8r	8ryy	.	]
.	.	16qqee-/LL	.	1 3	.
!	!	!LO:TX:a:B:t=K	!	!	!
.	.	16qqff/JJ	.	.	.
*ped	*	*	*	*	*
!	!	!	!	!	!LO:DY:b:t=(mp)
8AA-/	.	8gg-X/L)	4.cc\	.	mp >
8c\L 8g-X	2	8ff/	.	.	.
8A-\J	.	8een/J	.	.	.
*Xped	*	*	*	*	*
=82	=82	=82	=82	=82	=82
*ped	*	*	*	*	*
8AA-/	.	4ff/	4dd-\	.	.
8d-\L 8f	.	.	.	.	.
*Xped	*	*	*	*	*
8A-\J	.	8r	8r	.	.
!	!	!	!	!	!LO:DY:b:t=(mp)
.	.	((16qqdd-/LL	.	1 3	] mp >
!LO:TX:a:t=u)	!	!	!	!	!
.	.	16qqee-/JJ)	.	.	.
*ped	*	*	*	*	*
!LO:TX:b:i:t=simile	!	!	!	!	!
8AA-/	.	8ff-X/L)	4.gn\	.	.
8B-\L 8d-	.	8ee-/	.	.	.
8F-X\J	.	8dd-/J	.	.	.
!!LO:LB:g=original
=83	=83	=83	=83	=83	=83
8AA-/	.	4cc/	4a-\	.	.
8A-\L 8c	.	.	.	.	.
8E-\J	.	8r	8ryy	.	.
!	!	!	!	!	!LO:DY:b:t=(p)
.	.	(>(8qqa-/L	.	2	] p <
!	!	!LO:TX:a:t=v)	!	!	!
.	.	8qqb-/J)	.	4	.
8FFn/	.	8a-/L	4.ryy	3	.
8A-\L 8c	.	8g/	.	.	.
8F\J	.	8a-/J	.	.	.
*	*	*v	*v	*	*
=84	=84	=84	=84	=84
8DD-/	.	16an'\LL	1	.
.	.	16b-'\JJ	.	.
8F\L 8B-	.	[4ff^\	5	.
8D-\J	.	.	.	.
8EE-/	.	16ff\LL]	.	[ >
!	!	!LO:TX:a:i:t=ritard.	!	!
.	.	16ff-X'\	.	.
8G\L 8d-	2	16ee-'\	.	.
.	.	16ddn'\	1	.
8E-\J	.	16dd-X'\	4	.
.	.	16b-'\JJ	3	.
=85	=85	=85	=85	=85
*	*	*^	*	*
8AA-/	.	4a-/	4ryy	.	.
!	!	!LO:TX:a:i:t=a tempo	!	!	!
8A-\L 8c	.	.	.	.	.
8E-\J	.	8r	8r	.	]
!	!	!	!	!	!LO:DY:b:t=(mp)
.	.	(>(<16qqee-/LL)	.	1 3	mp >
!	!	!LO:TX:a:B:t=L	!	!	!
.	.	16qqff/JJ	.	.	.
8AA-/	.	8gg-X/L)	4.cc\	.	.
8c\L 8g-X	2	8ff/	.	.	.
8A-\J	.	8een/J	.	.	.
=86	=86	=86	=86	=86	=86
8AA-/	.	4ff/	4dd-\	.	.
8d-\L 8f	.	.	.	.	.
8A-\J	.	8r	8r	.	]
.	.	(>(16qqdd-/LL)	.	1 3	.
!LO:TX:a:t=w)	!	!	!	!	!
.	.	16qqee-/JJ)	.	.	.
!	!	!	!	!	!LO:DY:b:t=(mp)
8AA-/	.	8ff-X/L	4.gn\	.	> mp
8B-\L 8d-	.	8ee-/	.	.	.
8F-X\J	.	8dd-/J	.	.	.
*	*	*v	*v	*	*
!!LO:LB:g=original
=87	=87	=87	=87	=87
8AA-/	.	4cc\	.	.
8A-\L 8c	.	.	.	.
8E-\J	.	8r	.	]
.	.	(>(16qqa-/LL)	2	<
!	!	!LO:TX:b:i:t=(rinf.)	!	!
!	!	!LO:TX:a:t=x)	!	!
.	.	16qqb-/JJ	4	.
8FFn/	.	8a-/L)	3	.
8A-\L 8c	.	8g/	.	.
8F\J	.	8a-/J	.	.
=88	=88	=88	=88	=88
8DD-/	.	16an'\LL	1	.
.	.	16b-'\J	.	.
8F\L 8B-	.	8.ddd-\	5	[ sf >
8D-\J	.	.	.	.
.	.	16ccc\Jk	.	.
*ped	*	*	*	*
8EE-/	.	32bb-\LLL	.	.
!	!	!LO:TX:a:i:t=riten.	!	!
.	.	32aa-\	.	.
.	.	32gg\	.	.
.	.	32ff\	3	.
8G\L 8d-	2	32ee-\	.	.
.	.	32ddn\	.	.
.	.	32dd-X\	3	.
.	.	32cc\	1	.
8E-\J	3	32ee-\	4	.
.	.	32dd-\	.	.
.	.	32f\	.	.
.	.	32g\JJJ	.	]]
*Xped	*	*	*	*
=89	=89	=89	=89	=89
*^	*	*^	*	*
!	!	!	!LO:TX:a:B:t=M	!	!	!
4.AA-/	16AA-\LL	.	(>4a-/)	4ryy	.	p <
.	16E-\	2	.	.	.	.
.	16A-\	.	.	.	.	.
.	16E-\	.	.	.	.	.
.	16G\	.	16b-/LL	8d-\	4	[ >
.	16E-\JJ	.	16cc/JJ	.	.	.
4.AA-/	16AA-\LL	.	(16a-/LL)	4c\	3	]
.	16E-\	.	48e-/L	.	2	<
.	.	.	48f/	.	4	.
.	.	.	48e-/J	.	3	.
.	16A-\	.	16dn/	.	.	.
.	16E-\	.	16e-/	.	.	.
.	16G\	.	16b-/	8d-X\	4	[ >
.	16E-\JJ	.	16cc/JJ	.	.	.
*v	*v	*	*	*	*	*
*	*	*v	*v	*	*
!!LO:LB:g=original
=90	=90	=90	=90	=90
*ped	*	*	*	*
!LO:TX:a:t=y)	!	!	!	!
8.AA-\ 8.A-	.	8.c/) 8.a-	.	.
*clefG2	*	*	*	*
!	!	!LO:TX:a:t=z)	!	!
16e-'/LL	2	(16b-'\LL	2	] <
16a-'/	1	16cc'\	1	.
16b-'/JJ	4	16ee-'\JJ	2	.
16cc'\LL	.	16aa-'\LL	3	.
*	*above	*	*	*
16ee-'\	2	16bb-'\	.	.
16aa-'\	1	16ccc'\	1	.
16bb-'\	4	16eee-'\	2	.
*	*	*8va	*	*
16ccc'\	.	16aaa-'\	3	.
16eee-'\JJ	2	16bbb-'\JJ	.	[[
=91	=91	=91	=91	=91
8aaa-\	.	8cccc\)	.	>
*	*	*X8va	*	*
8r	.	8r	.	]
16cc'\LL	4	(16aa-'\LL	2	pp <
16ee-'\JJ	.	16bb-'\JJ	.	.
8aa-\	.	8ccc\)	.	[ >
8r	.	8r	.	]
*	*below	*	*	*
16c'/LL	4	(16a-'/LL	2	<
16e-'/JJ	.	16b-'/JJ	.	[[
=92	=92	=92	=92	=92
*	*	*^	*	*
8a-/	.	8cc\)	4.ryy	.	>
*Xped	*	*	*	*	*
8r	.	8r	.	.	]
8r	.	8r	.	.	.
*clefF4	*	*clefF4	*	*	*
!	!	!	!	!	!LO:DY:b:t=(mp)
4.AAA-/ 4.AA-	.	4.A-/ (4.d-	4F\	1 5	mp <
*	*	*	*	*below	*
.	.	.	8F-X\	1	.
*	*	*v	*v	*	*
=93	=93	=93	=93	=93
*tremolo	*	*tremolo	*	*
*ped	*	*	*above	*
!	!	!LO:TX:a:t=tz)	!	!
32AAA-/LLL	.	32A-\LLL 32c	4	.
32AA-/	.	32E-\	.	.
32AAA-/	.	32A-\ 32c	.	.
32AA-/	.	32E-\	.	.
32AAA-/	.	32A-\ 32c	.	.
32AA-/	.	32E-\	.	.
32AAA-/	.	32A-\ 32c	.	.
32AA-/	.	32E-\	.	.
32AAA-/	.	32A-\ 32c	.	.
32AA-/	.	32E-\	.	.
32AAA-/	.	32A-\ 32c	.	.
32AA-/	.	32E-\	.	.
32AAA-/	.	32A-\ 32c	.	.
32AA-/	.	32E-\	.	.
32AAA-/	.	32A-\ 32c	.	.
32AA-/	.	32E-\	.	.
32AAA-/	.	32A-\ 32c	.	.
32AA-/	.	32E-\	.	.
32AAA-/	.	32A-\ 32c	.	.
32AA-/	.	32E-\	.	.
32AAA-/	.	32A-\ 32c	.	.
32AA-/	.	32E-\	.	.
32AAA-/	.	32A-\ 32c	.	.
32AA-/JJJ	.	32E-\JJJ	.	[[
*Xtremolo	*	*	*	*
=94	=94	=94	=94	=94
[4.AAA-:/ [4.AA-:	.	[4.E-:\ [4.A-: [4.c:	.	>
4AAA-/] 4AA-]	.	4E-\] 4A-] 4c])	.	.
*Xped	*	*	*	*
8r	.	8r	.	]]
==	==	==	==	==
*-	*-	*-	*-	*-
!!!RDF**kern: > = above
!!!RDF**kern: < = below
!!!system-decoration: [(s1,s2)]
!!!ENC: Berenika Jozajtis
!!!END: 2022-07-15
!!!ENC: Urszula Świątek
!!!END: 2022-08-18
